X:1
T:Canon in D
C:Pachelbel
M:2/2
L:1/8
K:D
"D" DFAd "A" CEAc|"Bm" B,DFB "F#m" A,CFA|"G" B,DGB "D" A,DFA|"G" B,DGB "A" CEAc|
"D" f4 "A" e4|"Bm" d4 "F#m" c4|"G" B4 "D" A4|"G" B4 "A" c4|
d4 c4|B4 A4|G4 F4|G4 E4|
(D2 F2) (A2 G2)|(F2 D2) (F2 E2)|(D2 B,2) (D2 A2)|(G2 B2) (A2 G2)|
(F2 D2) (E2 c2)|(d2 f2) (a2 A2)|(B2 G2) (A2 F2)|D2 d2 +trill+d3c|
dcdD CAEF|DdcB cfab|gfeg fedc|BAGF EGFE|
DEFG AEAG|FBAG AGFE|DB,Bc dcBA|GFEB ABAG|
Fz f2 e4|z2 d2 f4|b4 a4|b4 c'4|
d'2 d2 c4|z2 B2 d4|d6 d2|d2 g2 e2 a2|
(af/g/) (af/g/) a/(A/B/c/ d/e/f/g/)|(fd/e/) f(F/G/)(A/B/A/G/ A/F/G/A/)|
(GB/A/ GF/E/) (F/E/D/E/ F/G/A/B/)|(GB/A/ Bc/d/) (A/B/c/d/ e/f/g/a/)|
(fd/e/ fe/d/) (e/c/d/e/ f/e/d/c/)|(dB/c/) d(D/E/)(F/G/F/E/ F/d/c/d/)|
(Bd/c/ BA/G/) (A/G/F/G/ A/B/c/d/)|(Bd/c/ dc/B/) (c/d/e/d/ c/d/B/c/)|
dz3 cz3|Bz3 dz3|Dz3 Dz3|Dz3 Ez3|+fermata+D8|]

